svg/u1f6cc.svg

<svg viewBox="0 0 128 128" xmlns="http://www.w3.org/2000/svg">
  <g>
    <path d="M27.85,105.5h-19V54.94c5.08,0,14.99,4.12,14.99,4.12c2.41,0.89,4.01,3.18,4.01,5.75V105.5z" fill="#A65F3E"/>
    <path d="M26.38,95.5V83.06c-2.16,0.11-9.13,0.76-10.88,2.02C12.12,87.5,13,91.82,12.98,95.5H26.38z" fill="#784D30"/>
    <path d="M121.91,105.43H12.98V58.99c0-2.24-1.82-4.06-4.06-4.06s-4.06,1.82-4.06,4.06v64.9h6l4.8-9.58h96.7 l4.8,9.58h6v-17.22C123.15,105.99,122.6,105.43,121.91,105.43z" fill="#C87D5E"/>
    <path d="M120.46,108.37l-104.17,0.1c-1.49,0-2.91-0.78-2.91-2.32c0,0,106.53-0.77,107.74-0.77 c1.21,0,2.02,0.05,2.02,1.17C123.14,107.65,122.98,108.37,120.46,108.37z" fill="#784D30"/>
    <path d="M110.47,106.94l-95.61,0.1c-1.49,0-1.88-1.45-1.88-3.11v-7.91c0-1.15,0.84-2.09,1.87-2.09h94.73 c1.98,0,3.59,1.79,3.59,4v6C113.16,105.59,111.96,106.94,110.47,106.94z" fill="#E0F7FA"/>
    <path d="M59.5,108.42c0,0,21.48,5.89,35.34,5.89c10.98,0,17.51,0,17.51,0l-0.39-7.75L59.5,108.42z" fill="#784D30"/>
    <polygon points="112.35,114.31 117.15,114.31 117.15,121.66 117.15,123.89 " fill="#784D30"/>
    <polygon points="15.65,114.31 10.85,114.31 10.85,121.66 10.85,123.89 " fill="#784D30"/>
    <path d="M27.33,93.95c-11.36,0-13.38-5.96-13.38-5.96s3.55-6.57,13.11-6.57s14.52,5.88,14.81,7.84 C42.49,93.48,38.69,93.95,27.33,93.95z" fill="#E0F7FA"/>
    <path d="M13.95,87.99c0.8,1.92,3.81,5.96,13.38,5.96c4.65,0,10.53,0,10.53,0l0.48-5.53 c0,0-2.91,1.47-11.28,1.71C21.38,90.29,16.46,89.37,13.95,87.99z" fill="#94D1E0"/>
  </g>
  <path id="head" d="M34.17,71.4c5.86-2.47,11.63,1.3,13.58,5.58c0,0-4.93,4.15-6.14,4.6L34.17,71.4z" fill="#FFCA28"/>
  <g id="hairGroup">
    <path id="hair" d="M39.61,86.98c2.79-6.05,7.07-9.02,7.07-9.02l0.24-0.03c-0.35-0.15-0.71-0.25-1.08-0.28 c-1.09-0.09-2.16,0.34-3.25,0.5s-2.39-0.08-2.9-1.05c-0.34-0.64-0.2-1.49,0.32-1.99c0.52-0.5,1.37-0.61,2-0.25 c-0.4-1.41-1.84-4.66-6.36-4.39c-3.86,0.24-6.56,2.74-7.72,5.77c-0.9,2.35-0.42,6.6,0.98,7.35c0.29,0.15,0.64,0.23,1.01,0.29 c0.53,0.08,1.09,0.11,1.55,0.22c1.06,0.25,2.1,0.56,3.13,0.92c1.7,0.59,3.34,1.33,4.92,2.18C39.56,87.13,39.58,87.06,39.61,86.98z" fill="#543930"/>
    <radialGradient id="hairHighlights_1_" cx="38.8553" cy="80.3434" gradientTransform="matrix(0.9999 -0.0112 9.966101e-03 0.8922 -0.7983 9.0978)" gradientUnits="userSpaceOnUse" r="12.4282">
      <stop offset="0.6407" stop-color="#6D4C41" stop-opacity="0"/>
      <stop offset="1" stop-color="#6D4C41"/>
    </radialGradient>
    <path id="hairHighlights" d="M39.61,86.98c2.79-6.05,7.07-9.02,7.07-9.02l0.24-0.03 c-0.35-0.15-0.71-0.25-1.08-0.28c-1.09-0.09-2.16,0.34-3.25,0.5s-2.39-0.08-2.9-1.05c-0.34-0.64-0.2-1.49,0.32-1.99 c0.52-0.5,1.37-0.61,2-0.25c-0.4-1.41-1.84-4.66-6.36-4.39c-3.86,0.24-6.56,2.74-7.72,5.77c-0.9,2.35-0.42,6.6,0.98,7.35 c0.29,0.15,0.64,0.23,1.01,0.29c0.53,0.08,1.09,0.11,1.55,0.22c1.06,0.25,2.1,0.56,3.13,0.92c1.7,0.59,3.34,1.33,4.92,2.18 C39.56,87.13,39.58,87.06,39.61,86.98z" fill="url(#hairHighlights_1_)"/>
  </g>
  <g>
    <path d="M45.75,83.81c0.59-1.09,3.74-5.09,10.05-7.01c8.28-2.52,13.48-2.79,27.07,0.93 c7.83,2.14,20.4,6.19,28.29,7.87c5.83,1.24,13.2,5.94,12,12.84L45.75,83.81z" fill="#3DAAE0"/>
    <path d="M51.12,82.94c0.48-0.88,8.88-2.07,18.15,0.1c6.88,1.61,21.71,4.65,32.56,5.6 c5.56,0.49,17.05,1.7,19.7,4.37c3.89,3.93,3.35,8.88,0.09,16.86c-1.21,2.97-4.48,5.71-4.48,5.71 c-25.69-2.95-65.26-7.31-72.26-11.07C44.89,104.52,44.8,94.66,51.12,82.94z" fill="#188AD6"/>
    <path d="M49.17,88.83c0,0,2.24-3.54,3.09-5.03c3.53-6.24,6.49-7.04,6.49-7.86s-8.89-0.26-11.05,1.09 c0,0-5.71,1.79-8.1,8.73C39.15,87.06,49.17,88.83,49.17,88.83z" fill="#B0E0FF"/>
    <path d="M41.92,81.42c0,0,2.26-0.57,6.06-0.54c2.84,0.02,5.19,1.41,5.19,1.41 c-5.47,9.58-6.41,19.56-6.59,22.17c-0.09,1.3-0.48,1.31-1.71,0.91l-7.2-2.05c-1.43-0.6-1.67-1.54-1.67-2.62 C36,89,41.92,81.42,41.92,81.42z" fill="#7DBBE3"/>
  </g>
</svg>

<svg viewBox="0 0 128 128" xmlns="http://www.w3.org/2000/svg">
  <defs>
    <radialGradient id="hairHighlights_1_" cx="37.955398" cy="90.529144" gradientTransform="matrix(0.9999 -0.0112 0.009966 0.8922 0 0)" gradientUnits="userSpaceOnUse" r="12.4282">
      <stop offset="0.6407" stop-color="#6D4C41" stop-opacity="0"/>
      <stop offset="1" stop-color="#6D4C41"/>
    </radialGradient>
  </defs>
  <path d="M27.85,105.5 L8.85,105.5 L8.85,54.94 C13.93,54.94 23.84,59.06 23.84,59.06 C26.25,59.95 27.85,62.24 27.85,64.81 L27.85,105.5 Z" fill="#A65F3E"/>
  <path d="M26.38,95.5 L26.38,83.06 C24.22,83.17 17.25,83.82 15.5,85.08 C12.12,87.5 13,91.82 12.98,95.5 L26.38,95.5 Z" fill="#784D30"/>
  <path d="M121.91,105.43 L12.98,105.43 L12.98,58.99 C12.98,56.75 11.16,54.93 8.92,54.93 C6.68,54.93 4.86,56.75 4.86,58.99 L4.86,123.89 L10.86,123.89 L15.66,114.31 L112.36,114.31 L117.16,123.89 L123.16,123.89 L123.16,106.67 C123.15,105.99 122.6,105.43 121.91,105.43 Z" fill="#C87D5E"/>
  <path d="M120.46,108.37 L16.29,108.47 C14.8,108.47 13.38,107.69 13.38,106.15 C13.38,106.15 119.91,105.38 121.12,105.38 C122.33,105.38 123.14,105.43 123.14,106.55 C123.14,107.65 122.98,108.37 120.46,108.37 Z" fill="#784D30"/>
  <path d="M110.47,106.94 L14.86,107.04 C13.37,107.04 12.98,105.59 12.98,103.93 L12.98,96.02 C12.98,94.87 13.82,93.93 14.85,93.93 L109.58,93.93 C111.56,93.93 113.17,95.72 113.17,97.93 L113.17,103.93 C113.16,105.59 111.96,106.94 110.47,106.94 Z" fill="#E0F7FA"/>
  <path d="M59.5,108.42 C59.5,108.42 80.98,114.31 94.84,114.31 C105.82,114.31 112.35,114.31 112.35,114.31 L111.96,106.56 L59.5,108.42 Z" fill="#784D30"/>
  <path d="M112.35,114.31 L117.15,114.31 L117.15,121.66 L117.15,123.89 Z" fill="#784D30"/>
  <path d="M15.65,114.31 L10.85,114.31 L10.85,121.66 L10.85,123.89 Z" fill="#784D30"/>
  <path d="M27.33,93.95 C15.97,93.95 13.95,87.99 13.95,87.99 C13.95,87.99 17.5,81.42 27.06,81.42 C36.62,81.42 41.58,87.3 41.87,89.26 C42.49,93.48 38.69,93.95 27.33,93.95 Z" fill="#E0F7FA"/>
  <path d="M13.95,87.99 C14.75,89.91 17.76,93.95 27.33,93.95 C31.98,93.95 37.86,93.95 37.86,93.95 L38.34,88.42 C38.34,88.42 35.43,89.89 27.06,90.13 C21.38,90.29 16.46,89.37 13.95,87.99 Z" fill="#94D1E0"/>
  <path id="head" d="M34.17,71.4 C40.03,68.93 45.8,72.7 47.75,76.98 C47.75,76.98 42.82,81.13 41.61,81.58 L34.17,71.4 Z" fill="#FFCA28"/>
  <path id="hair" d="M39.61,86.98 C42.4,80.93 46.68,77.96 46.68,77.96 L46.92,77.93 C46.57,77.78 46.21,77.68 45.84,77.65 C44.75,77.56 43.68,77.99 42.59,78.15 C41.5,78.31 40.2,78.07 39.69,77.1 C39.35,76.46 39.49,75.61 40.01,75.11 C40.53,74.61 41.38,74.5 42.01,74.86 C41.61,73.45 40.17,70.2 35.65,70.47 C31.79,70.71 29.09,73.21 27.93,76.24 C27.03,78.59 27.51,82.84 28.91,83.59 C29.2,83.74 29.55,83.82 29.92,83.88 C30.45,83.96 31.01,83.99 31.47,84.1 C32.53,84.35 33.57,84.66 34.6,85.02 C36.3,85.61 37.94,86.35 39.52,87.2 C39.56,87.13 39.58,87.06 39.61,86.98 Z" fill="#543930"/>
  <path id="hairHighlights" d="M39.61,86.98 C42.4,80.93 46.68,77.96 46.68,77.96 L46.92,77.93 C46.57,77.78 46.21,77.68 45.84,77.65 C44.75,77.56 43.68,77.99 42.59,78.15 C41.5,78.31 40.2,78.07 39.69,77.1 C39.35,76.46 39.49,75.61 40.01,75.11 C40.53,74.61 41.38,74.5 42.01,74.86 C41.61,73.45 40.17,70.2 35.65,70.47 C31.79,70.71 29.09,73.21 27.93,76.24 C27.03,78.59 27.51,82.84 28.91,83.59 C29.2,83.74 29.55,83.82 29.92,83.88 C30.45,83.96 31.01,83.99 31.47,84.1 C32.53,84.35 33.57,84.66 34.6,85.02 C36.3,85.61 37.94,86.35 39.52,87.2 C39.56,87.13 39.58,87.06 39.61,86.98 Z" fill="url(#hairHighlights_1_)"/>
  <path d="M45.75,83.81 C46.34,82.72 49.49,78.72 55.8,76.8 C64.08,74.28 69.28,74.01 82.87,77.73 C90.7,79.87 103.27,83.92 111.16,85.6 C116.99,86.84 124.36,91.54 123.16,98.44 L45.75,83.81 Z" fill="#3DAAE0"/>
  <path d="M51.12,82.94 C51.6,82.06 60,80.87 69.27,83.04 C76.15,84.65 90.98,87.69 101.83,88.64 C107.39,89.13 118.88,90.34 121.53,93.01 C125.42,96.94 124.88,101.89 121.62,109.87 C120.41,112.84 117.14,115.58 117.14,115.58 C91.45,112.63 51.88,108.27 44.88,104.51 C44.89,104.52 44.8,94.66 51.12,82.94 Z" fill="#188AD6"/>
  <path d="M49.17,88.83 C49.17,88.83 51.41,85.29 52.26,83.8 C55.79,77.56 58.75,76.76 58.75,75.94 C58.75,75.12 49.86,75.68 47.7,77.03 C47.7,77.03 41.99,78.82 39.6,85.76 C39.15,87.06 49.17,88.83 49.17,88.83 Z" fill="#B0E0FF"/>
  <path d="M41.92,81.42 C41.92,81.42 44.18,80.85 47.98,80.88 C50.82,80.9 53.17,82.29 53.17,82.29 C47.7,91.87 46.76,101.85 46.58,104.46 C46.49,105.76 46.1,105.77 44.87,105.37 L37.67,103.32 C36.24,102.72 36,101.78 36,100.7 C36,89 41.92,81.42 41.92,81.42 Z" fill="#7DBBE3"/>
</svg>
